Newaita-dark/.DP/32/teamviewer-indicator-busy.svg

<svg xmlns="http://www.w3.org/2000/svg" xmlns:xlink="http://www.w3.org/1999/xlink" width="32px" height="32px" viewBox="0 0 32 32" version="1.1">
<g id="surface1">
<path style=" stroke:none;fill-rule:nonzero;fill:rgb(93.333334%,93.333334%,93.333334%);fill-opacity:1;" d="M 15.878906 4.21875 C 9.277344 4.21875 3.96875 9.527344 3.96875 16.128906 C 3.96875 22.722656 9.277344 28.035156 15.878906 28.035156 C 18.449219 28.035156 20.828125 27.222656 22.773438 25.847656 L 21.738281 24.816406 C 21.125 24.214844 21.007812 23.339844 21.285156 22.652344 C 21.566406 21.964844 22.261719 21.417969 23.117188 21.417969 C 23.652344 21.417969 24.164062 21.636719 24.535156 22.019531 L 25.574219 23.054688 C 26.964844 21.105469 27.785156 18.714844 27.785156 16.128906 C 27.785156 9.527344 22.472656 4.21875 15.878906 4.21875 Z M 19.167969 11.488281 C 19.527344 11.488281 19.867188 11.632812 20.113281 11.886719 L 23.421875 15.195312 C 23.9375 15.710938 23.9375 16.542969 23.421875 17.058594 L 20.113281 20.363281 C 19.785156 20.707031 19.296875 20.839844 18.835938 20.71875 C 18.378906 20.597656 18.019531 20.238281 17.898438 19.78125 C 17.777344 19.324219 17.914062 18.832031 18.253906 18.503906 L 19.316406 17.4375 C 19.273438 17.441406 19.230469 17.441406 19.183594 17.441406 L 12.441406 17.441406 L 13.5 18.503906 C 13.839844 18.832031 13.976562 19.324219 13.855469 19.78125 C 13.734375 20.238281 13.375 20.597656 12.917969 20.71875 C 12.457031 20.839844 11.96875 20.707031 11.636719 20.363281 L 8.332031 17.058594 C 7.816406 16.542969 7.816406 15.710938 8.332031 15.195312 L 11.636719 11.886719 C 11.878906 11.644531 12.199219 11.5 12.542969 11.488281 C 13.085938 11.472656 13.582031 11.792969 13.792969 12.292969 C 14.007812 12.792969 13.890625 13.371094 13.5 13.75 L 12.441406 14.808594 L 19.183594 14.808594 C 19.230469 14.808594 19.273438 14.8125 19.320312 14.816406 L 18.253906 13.75 C 17.871094 13.378906 17.75 12.808594 17.949219 12.308594 C 18.152344 11.816406 18.636719 11.488281 19.167969 11.488281 Z M 20.511719 16.011719 C 20.519531 16.089844 20.519531 16.164062 20.515625 16.242188 L 20.628906 16.128906 Z M 23.121094 22.738281 C 22.792969 22.742188 22.605469 22.910156 22.511719 23.152344 C 22.414062 23.386719 22.429688 23.640625 22.660156 23.867188 C 22.664062 23.871094 22.667969 23.871094 22.667969 23.871094 L 23.8125 25.019531 C 24.136719 24.726562 24.449219 24.417969 24.742188 24.089844 L 23.597656 22.945312 C 23.59375 22.941406 23.589844 22.941406 23.589844 22.941406 C 23.464844 22.8125 23.296875 22.738281 23.121094 22.738281 Z M 23.121094 22.738281 "/>
<path style=" stroke:none;fill-rule:nonzero;fill:rgb(93.333334%,93.333334%,93.333334%);fill-opacity:1;" d="M 23.117188 22.082031 C 22.582031 22.082031 22.097656 22.402344 21.898438 22.902344 C 21.699219 23.398438 21.816406 23.964844 22.199219 24.339844 L 26.878906 29.019531 C 27.207031 29.359375 27.699219 29.496094 28.160156 29.375 C 28.617188 29.253906 28.976562 28.894531 29.097656 28.433594 C 29.21875 27.976562 29.082031 27.488281 28.742188 27.15625 L 24.0625 22.480469 C 23.816406 22.222656 23.472656 22.082031 23.117188 22.082031 Z M 23.117188 22.082031 "/>
<path style=" stroke:none;fill-rule:nonzero;fill:rgb(93.333334%,93.333334%,93.333334%);fill-opacity:1;" d="M 27.785156 22.082031 C 27.441406 22.089844 27.117188 22.234375 26.878906 22.480469 L 22.199219 27.15625 C 21.859375 27.488281 21.722656 27.976562 21.839844 28.4375 C 21.964844 28.898438 22.324219 29.257812 22.78125 29.378906 C 23.242188 29.496094 23.730469 29.363281 24.0625 29.019531 L 28.742188 24.339844 C 29.128906 23.960938 29.246094 23.382812 29.035156 22.882812 C 28.824219 22.382812 28.324219 22.066406 27.785156 22.082031 Z M 27.785156 22.082031 "/>
</g>
</svg>

<svg xmlns="http://www.w3.org/2000/svg" width="32pt" height="32pt" viewBox="0 0 32 32"><g fill="#bdbdbd"><path d="M15.875 4.219A11.883 11.883 0 0 0 3.969 16.125c0 6.598 5.312 11.91 11.906 11.91 2.574 0 4.953-.808 6.898-2.187l-1.035-1.032a1.997 1.997 0 0 1-.453-2.164 1.977 1.977 0 0 1 3.254-.633l1.035 1.036c1.39-1.95 2.211-4.34 2.211-6.93a11.884 11.884 0 0 0-11.91-11.906zm3.297 7.27c.355 0 .695.144.941.398l3.309 3.308a1.316 1.316 0 0 1 0 1.864l-3.309 3.308a1.31 1.31 0 0 1-1.277.352 1.316 1.316 0 0 1-.582-2.215l1.062-1.067c-.043.004-.086.008-.132.004H12.44l1.059 1.063a1.317 1.317 0 1 1-1.863 1.863L8.332 17.06a1.316 1.316 0 0 1 0-1.864l3.305-3.308a1.32 1.32 0 0 1 2.16.406c.21.5.094 1.078-.297 1.457l-1.059 1.059h6.743c.046 0 .09.004.136.007l-1.066-1.066a1.315 1.315 0 0 1 .918-2.262zm1.34 4.523c.008.074.008.152.004.23l.113-.117zm2.605 6.73a.61.61 0 0 0-.605.406.614.614 0 0 0 .156.727l1.145 1.145c.328-.293.636-.602.93-.926l-1.145-1.149a.665.665 0 0 0-.48-.203zm0 0"/><path d="M23.117 22.078a1.32 1.32 0 0 0-1.219.824 1.312 1.312 0 0 0 .301 1.438l4.68 4.68c.332.34.82.476 1.281.355.457-.121.817-.48.938-.938.12-.46-.016-.949-.356-1.28l-4.68-4.677a1.309 1.309 0 0 0-.945-.402zm0 0"/><path d="M27.785 22.082a1.303 1.303 0 0 0-.906.398l-4.68 4.676a1.321 1.321 0 0 0 .582 2.223c.461.117.953-.02 1.282-.36l4.68-4.68c.386-.378.503-.956.292-1.456-.21-.5-.707-.82-1.25-.801zm0 0"/></g></svg>
